src/pages/elements/pictograms/images/11_Gradients_4_do.svg

<?xml version="1.0" encoding="UTF-8"?>
<svg width="288px" height="288px" viewBox="0 0 288 288" version="1.1" xmlns="http://www.w3.org/2000/svg" xmlns:xlink="http://www.w3.org/1999/xlink">
    <!-- Generator: Sketch 52.5 (67469) - http://www.bohemiancoding.com/sketch -->
    <title>Artboard Copy 70</title>
    <desc>Created with Sketch.</desc>
    <defs>
        <linearGradient x1="110.655122%" y1="-2.58407462%" x2="-10.8010159%" y2="101.805371%" id="linearGradient-1">
            <stop stop-color="#009C98" offset="0%"></stop>
            <stop stop-color="#0062FF" offset="100%"></stop>
        </linearGradient>
    </defs>
    <g id="Artboard-Copy-70" stroke="none" stroke-width="1" fill="none" fill-rule="evenodd">
        <rect id="Rectangle-3-Copy-43" fill="#FFFFFF" x="0" y="0" width="288" height="288"></rect>
        <g id="Group-4" transform="translate(52.000000, 52.000000)">
            <polygon id="Fill-1" fill="#FFFFFF" points="0 184 184 184 184 0 0 0"></polygon>
            <path d="M135.922525,69 C135.922525,63.802 131.690525,59.57 126.492525,59.57 L122.818275,59.57 L122.818275,78.43 L126.492525,78.43 C131.690525,78.43 135.922525,74.198 135.922525,69 Z M65.318275,124.42425 L118.678275,124.42425 L118.678275,53.82 L65.318275,53.82 L65.318275,124.42425 Z M109.248275,168.82 C104.763275,168.82 100.997025,171.971 100.048275,176.18 L118.448275,176.18 C117.505275,171.971 113.739025,168.82 109.248275,168.82 Z M71.068275,32.42425 L112.928275,32.42425 L112.928275,7.82 L71.068275,7.82 L71.068275,32.42425 Z M74.748275,168.82 C70.263275,168.82 66.497025,171.971 65.548275,176.18 L83.948275,176.18 C83.005275,171.971 79.239025,168.82 74.748275,168.82 Z M61.178275,59.57 L57.492525,59.57 C52.294525,59.57 48.062525,63.802 48.062525,69 C48.062525,74.198 52.294525,78.43 57.492525,78.43 L61.178275,78.43 L61.178275,59.57 Z M166.150275,90.99375 L167.352025,94.96125 L162.757775,96.35275 C160.509525,97.00825 158.140525,96.75525 156.087775,95.63975 C154.322525,94.67375 152.971275,93.173 152.212275,91.356 L138.337525,99.36575 C137.262275,100.2455 135.387775,99.65325 135.019775,98.28475 C134.996775,98.18125 134.973775,98.0835 134.962275,97.97425 L130.655525,81.9145 C129.344525,82.34 127.941525,82.57 126.492525,82.57 L122.818275,82.57 L122.818275,126.5 C122.818275,127.64425 121.892525,128.57 120.748275,128.57 L111.318275,128.57 L111.318275,164.83525 C117.827275,165.83575 122.818275,171.47075 122.818275,178.25 C122.818275,179.39425 121.892525,180.32 120.748275,180.32 L97.748275,180.32 C96.609775,180.32 95.678275,179.39425 95.678275,178.25 C95.678275,171.47075 100.675025,165.83575 107.178275,164.83525 L107.178275,128.57 L76.818275,128.57 L76.818275,164.83525 C83.327275,165.83575 88.318275,171.47075 88.318275,178.25 C88.318275,179.39425 87.392525,180.32 86.248275,180.32 L63.248275,180.32 C62.109775,180.32 61.178275,179.39425 61.178275,178.25 C61.178275,171.47075 66.175025,165.83575 72.678275,164.83525 L72.678275,128.57 L63.248275,128.57 C62.109775,128.57 61.178275,127.64425 61.178275,126.5 L61.178275,82.57 L57.492525,82.57 C56.101025,82.57 54.755525,82.35725 53.490525,81.96625 L49.229775,97.87075 C49.224025,98.00875 49.201025,98.14675 49.166525,98.28475 C48.815775,99.60725 47.073525,100.2225 45.958025,99.4405 L31.956775,91.356 C31.192025,93.173 29.840775,94.67375 28.081275,95.634 C26.022775,96.761 23.653775,97.00825 21.422775,96.3585 L16.667525,94.967 L17.829025,90.988 L22.590025,92.3795 C23.768775,92.74175 25.016525,92.598 26.097525,92 C27.178525,91.40775 27.972025,90.436 28.317025,89.25725 C28.656275,88.08425 28.518275,86.848 27.926025,85.76125 C27.333775,84.6745 26.362025,83.88675 25.189025,83.54175 L22.446275,82.73675 L18.294775,85.16325 L16.201775,81.58675 L21.112275,78.71175 C21.606775,78.42425 22.193275,78.35525 22.739525,78.5105 L26.350525,79.5685 C28.587275,80.224 30.438775,81.719 31.565775,83.77175 C32.106275,84.77225 32.445525,85.84175 32.577775,86.93425 L45.825775,94.58175 L49.701275,80.109 C46.211025,77.648 43.922525,73.5885 43.922525,69 C43.922525,61.5135 50.011775,55.43 57.492525,55.43 L61.178275,55.43 L61.178275,51.75 C61.178275,50.60575 62.109775,49.68 63.248275,49.68 L89.928275,49.68 L89.928275,36.57 L68.998275,36.57 C67.859775,36.57 66.928275,35.64425 66.928275,34.5 L66.928275,5.75 C66.928275,4.60575 67.859775,3.68 68.998275,3.68 L114.998275,3.68 C116.142525,3.68 117.068275,4.60575 117.068275,5.75 L117.068275,34.5 C117.068275,35.64425 116.142525,36.57 114.998275,36.57 L94.068275,36.57 L94.068275,49.68 L120.748275,49.68 C121.892525,49.68 122.818275,50.60575 122.818275,51.75 L122.818275,55.43 L126.492525,55.43 C133.973275,55.43 140.062525,61.5135 140.062525,69 C140.062525,73.5195 137.837275,77.52725 134.433275,79.99975 L138.337525,94.58175 L151.585525,86.93425 C151.717775,85.8475 152.057025,84.77225 152.603275,83.77175 C153.724525,81.719 155.576025,80.224 157.812775,79.5685 L161.418025,78.5105 C161.975775,78.34375 162.573775,78.42425 163.068275,78.729 L167.823525,81.604 L165.678775,85.146 L161.711275,82.7425 L158.974275,83.54175 C157.801275,83.88675 156.829525,84.6745 156.237275,85.76125 C155.645025,86.848 155.507025,88.08425 155.852025,89.25725 C156.197025,90.44175 156.984775,91.40775 158.071525,92 C159.158275,92.598 160.388775,92.74175 161.567525,92.3795 L166.150275,90.99375 Z M101.428275,20.125 C101.428275,18.09525 99.778025,16.445 97.748275,16.445 L86.248275,16.445 C84.218525,16.445 82.568275,18.09525 82.568275,20.125 C82.568275,22.15475 84.218525,23.805 86.248275,23.805 L97.748275,23.805 C99.778025,23.805 101.428275,22.15475 101.428275,20.125 Z M105.568275,20.125 C105.568275,24.4375 102.060775,27.945 97.748275,27.945 L86.248275,27.945 C81.935775,27.945 78.428275,24.4375 78.428275,20.125 C78.428275,15.8125 81.935775,12.305 86.248275,12.305 L97.748275,12.305 C102.060775,12.305 105.568275,15.8125 105.568275,20.125 Z M58.303275,25.875 L62.443275,25.875 L62.443275,14.375 L58.303275,14.375 L58.303275,25.875 Z M121.553275,25.875 L125.693275,25.875 L125.693275,14.375 L121.553275,14.375 L121.553275,25.875 Z" id="Fill-2" fill="url(#linearGradient-1)"></path>
        </g>
        <path id="Path-4-Copy" d="M226.771113,61.4359941 L155.353553,132.853553 L154.646447,132.146447 L226.064006,60.7288873 L223.589132,58.2540136 L224.296239,57.5469068 L229.953093,63.203761 L229.245986,63.9108678 L226.771113,61.4359941 Z" fill="#6F6F6F" fill-rule="nonzero"></path>
        <path id="Path-4" d="M61,225.792893 L132.417559,154.375334 L133.124666,155.082441 L61.7071068,226.5 L64.1819805,228.974874 L63.4748737,229.681981 L57.8180195,224.025126 L58.5251263,223.318019 L61,225.792893 Z" fill="#6F6F6F" fill-rule="nonzero"></path>
        <path d="M138.25,149 L138.25,147.082 L133.532,147.082 L133.532,146.046 L137.62,139.228 L139.37,139.228 L139.37,146.102 L140.784,146.102 L140.784,147.082 L139.37,147.082 L139.37,149 L138.25,149 Z M134.638,146.102 L138.25,146.102 L138.25,140.138 L138.18,140.138 L134.638,146.102 Z M148.372,140.264 L144.088,140.264 L143.808,143.988 L143.906,143.988 C144.139334,143.661332 144.402999,143.400001 144.697,143.204 C144.991001,143.007999 145.394664,142.91 145.908,142.91 C146.328002,142.91 146.715332,142.979999 147.07,143.12 C147.424668,143.260001 147.732665,143.458332 147.994,143.715 C148.255335,143.971668 148.458333,144.286665 148.603,144.66 C148.747667,145.033335 148.82,145.457998 148.82,145.934 C148.82,146.410002 148.745334,146.846331 148.596,147.243 C148.446666,147.639669 148.229668,147.980332 147.945,148.265 C147.660332,148.549668 147.315002,148.771333 146.909,148.93 C146.502998,149.088667 146.043336,149.168 145.53,149.168 C145.119331,149.168 144.757668,149.121334 144.445,149.028 C144.132332,148.934666 143.854668,148.808667 143.612,148.65 C143.369332,148.491333 143.157001,148.314001 142.975,148.118 C142.792999,147.921999 142.627334,147.716668 142.478,147.502 L143.36,146.83 C143.481334,147.026001 143.609666,147.203333 143.745,147.362 C143.880334,147.520667 144.029666,147.655999 144.193,147.768 C144.356334,147.880001 144.545332,147.966333 144.76,148.027 C144.974668,148.087667 145.231332,148.118 145.53,148.118 C146.202003,148.118 146.710665,147.940668 147.056,147.586 C147.401335,147.231332 147.574,146.732003 147.574,146.088 L147.574,145.948 C147.574,145.303997 147.401335,144.804668 147.056,144.45 C146.710665,144.095332 146.202003,143.918 145.53,143.918 C145.081998,143.918 144.729668,143.999666 144.473,144.163 C144.216332,144.326334 143.985334,144.519999 143.78,144.744 L142.786,144.604 L143.136,139.228 L148.372,139.228 L148.372,140.264 Z M153.076,143.876 C152.739998,143.876 152.429668,143.815334 152.145,143.694 C151.860332,143.572666 151.613001,143.404668 151.403,143.19 C151.192999,142.975332 151.027334,142.721001 150.906,142.427 C150.784666,142.132999 150.724,141.813335 150.724,141.468 C150.724,141.122665 150.784666,140.803001 150.906,140.509 C151.027334,140.214999 151.192999,139.960668 151.403,139.746 C151.613001,139.531332 151.860332,139.363334 152.145,139.242 C152.429668,139.120666 152.739998,139.06 153.076,139.06 C153.412002,139.06 153.722332,139.120666 154.007,139.242 C154.291668,139.363334 154.538999,139.531332 154.749,139.746 C154.959001,139.960668 155.124666,140.214999 155.246,140.509 C155.367334,140.803001 155.428,141.122665 155.428,141.468 C155.428,141.813335 155.367334,142.132999 155.246,142.427 C155.124666,142.721001 154.959001,142.975332 154.749,143.19 C154.538999,143.404668 154.291668,143.572666 154.007,143.694 C153.722332,143.815334 153.412002,143.876 153.076,143.876 Z M153.076,142.98 C153.496002,142.98 153.829665,142.833001 154.077,142.539 C154.324335,142.244999 154.448,141.888002 154.448,141.468 C154.448,141.047998 154.324335,140.691001 154.077,140.397 C153.829665,140.102999 153.496002,139.956 153.076,139.956 C152.655998,139.956 152.322335,140.102999 152.075,140.397 C151.827665,140.691001 151.704,141.047998 151.704,141.468 C151.704,141.888002 151.827665,142.244999 152.075,142.539 C152.322335,142.833001 152.655998,142.98 153.076,142.98 Z" id="45°" fill="#6F6F6F"></path>
    </g>
</svg>

<svg xmlns="http://www.w3.org/2000/svg" viewBox="0 0 288 288"><defs><linearGradient x1="110.655%" y1="-2.584%" x2="-10.801%" y2="101.805%" id="a"><stop stop-color="#009C98" offset="0%"/><stop stop-color="#0062FF" offset="100%"/></linearGradient></defs><g fill="none" fill-rule="evenodd"><path fill="#FFF" d="M0 0h288v288H0z"/><path fill="#FFF" d="M52 236h184V52H52z"/><path d="M135.923 69c0-5.198-4.232-9.43-9.43-9.43h-3.675v18.86h3.675c5.198 0 9.43-4.232 9.43-9.43zm-70.605 55.424h53.36V53.82h-53.36v70.604zm43.93 44.396c-4.485 0-8.251 3.151-9.2 7.36h18.4c-.943-4.209-4.709-7.36-9.2-7.36zM71.068 32.424h41.86V7.82h-41.86v24.604zm3.68 136.396c-4.485 0-8.251 3.151-9.2 7.36h18.4c-.943-4.209-4.709-7.36-9.2-7.36zM61.178 59.57h-3.685c-5.198 0-9.43 4.232-9.43 9.43 0 5.198 4.232 9.43 9.43 9.43h3.685V59.57zM166.15 90.994l1.202 3.967-4.594 1.392a8.752 8.752 0 01-6.67-.713 8.692 8.692 0 01-3.876-4.284l-13.874 8.01c-1.076.88-2.95.287-3.318-1.081-.023-.104-.046-.201-.058-.31l-4.306-16.06a13.481 13.481 0 01-4.163.655h-3.675v43.93c0 1.144-.925 2.07-2.07 2.07h-9.43v36.265c6.51 1 11.5 6.636 11.5 13.415 0 1.144-.925 2.07-2.07 2.07h-23a2.072 2.072 0 01-2.07-2.07c0-6.78 4.997-12.414 11.5-13.415V128.57h-30.36v36.265c6.51 1 11.5 6.636 11.5 13.415 0 1.144-.925 2.07-2.07 2.07h-23a2.072 2.072 0 01-2.07-2.07c0-6.78 4.997-12.414 11.5-13.415V128.57h-9.43a2.072 2.072 0 01-2.07-2.07V82.57h-3.685a13.54 13.54 0 01-4.002-.604L49.23 97.871a2.062 2.062 0 01-.063.414c-.351 1.322-2.093 1.938-3.209 1.156l-14.001-8.085a8.709 8.709 0 01-3.876 4.278 8.712 8.712 0 01-6.658.725l-4.755-1.392 1.161-3.979 4.761 1.391A4.48 4.48 0 0026.098 92a4.586 4.586 0 002.219-2.743 4.586 4.586 0 00-.391-3.496 4.57 4.57 0 00-2.737-2.22l-2.743-.804-4.151 2.426-2.093-3.576 4.91-2.875a2.094 2.094 0 011.628-.202l3.61 1.058a8.716 8.716 0 015.216 4.204c.54 1 .88 2.07 1.012 3.162l13.248 7.648L49.7 80.109c-3.49-2.461-5.778-6.52-5.778-11.109 0-7.486 6.089-13.57 13.57-13.57h3.685v-3.68c0-1.144.932-2.07 2.07-2.07h26.68V36.57h-20.93a2.072 2.072 0 01-2.07-2.07V5.75c0-1.144.932-2.07 2.07-2.07h46c1.145 0 2.07.926 2.07 2.07V34.5c0 1.144-.925 2.07-2.07 2.07h-20.93v13.11h26.68c1.145 0 2.07.926 2.07 2.07v3.68h3.675c7.48 0 13.57 6.084 13.57 13.57 0 4.52-2.226 8.527-5.63 11l3.905 14.582 13.248-7.648a8.827 8.827 0 011.017-3.162 8.689 8.689 0 015.21-4.204l3.605-1.058a2.03 2.03 0 011.65.219l4.756 2.875-2.145 3.542-3.968-2.403-2.737.799a4.57 4.57 0 00-2.737 2.22 4.558 4.558 0 00-.385 3.495 4.55 4.55 0 002.22 2.743c1.086.598 2.317.742 3.496.38l4.582-1.386zm-64.722-70.869c0-2.03-1.65-3.68-3.68-3.68h-11.5c-2.03 0-3.68 1.65-3.68 3.68 0 2.03 1.65 3.68 3.68 3.68h11.5c2.03 0 3.68-1.65 3.68-3.68zm4.14 0c0 4.313-3.507 7.82-7.82 7.82h-11.5c-4.312 0-7.82-3.508-7.82-7.82 0-4.313 3.508-7.82 7.82-7.82h11.5c4.313 0 7.82 3.508 7.82 7.82zm-47.265 5.75h4.14v-11.5h-4.14v11.5zm63.25 0h4.14v-11.5h-4.14v11.5z" fill="url(#a)" transform="translate(52 52)"/><path d="M226.771 61.436l-71.417 71.418-.708-.708 71.418-71.417-2.475-2.475.707-.707 5.657 5.657-.707.707-2.475-2.475zM61 225.793l71.418-71.418.707.707L61.707 226.5l2.475 2.475-.707.707-5.657-5.657.707-.707L61 225.793z" fill="#6F6F6F" fill-rule="nonzero"/><path d="M138.25 149v-1.918h-4.718v-1.036l4.088-6.818h1.75v6.874h1.414v.98h-1.414V149h-1.12zm-3.612-2.898h3.612v-5.964h-.07l-3.542 5.964zm13.734-5.838h-4.284l-.28 3.724h.098c.233-.327.497-.588.791-.784.294-.196.698-.294 1.211-.294.42 0 .807.07 1.162.21.355.14.663.338.924.595.261.257.464.572.609.945.145.373.217.798.217 1.274s-.075.912-.224 1.309a2.84 2.84 0 01-.651 1.022c-.285.285-.63.506-1.036.665a3.765 3.765 0 01-1.379.238 3.82 3.82 0 01-1.085-.14 3.168 3.168 0 01-.833-.378 3.41 3.41 0 01-.637-.532 5.629 5.629 0 01-.497-.616l.882-.672c.121.196.25.373.385.532.135.159.285.294.448.406.163.112.352.198.567.259.215.06.471.091.77.091.672 0 1.18-.177 1.526-.532.345-.355.518-.854.518-1.498v-.14c0-.644-.173-1.143-.518-1.498-.345-.355-.854-.532-1.526-.532-.448 0-.8.082-1.057.245a3.445 3.445 0 00-.693.581l-.994-.14.35-5.376h5.236v1.036zm4.704 3.612a2.35 2.35 0 01-.931-.182 2.273 2.273 0 01-.742-.504 2.372 2.372 0 01-.497-.763 2.49 2.49 0 01-.182-.959c0-.345.06-.665.182-.959a2.37 2.37 0 01.497-.763 2.26 2.26 0 01.742-.504 2.35 2.35 0 01.931-.182c.336 0 .646.06.931.182.285.121.532.29.742.504.21.215.376.469.497.763.121.294.182.614.182.959s-.06.665-.182.959a2.372 2.372 0 01-.497.763 2.26 2.26 0 01-.742.504 2.35 2.35 0 01-.931.182zm0-.896c.42 0 .754-.147 1.001-.441a1.61 1.61 0 00.371-1.071c0-.42-.124-.777-.371-1.071-.247-.294-.581-.441-1.001-.441-.42 0-.754.147-1.001.441a1.61 1.61 0 00-.371 1.071c0 .42.124.777.371 1.071.247.294.581.441 1.001.441z" fill="#6F6F6F"/></g></svg>
